X:1
T:Caen Wood Dances. Tho24CDs1792.01
M:2/4
L:1/8
Q:1/4=120
C:"73"
B:Thompson 24 CDs 1792
Z:Village Music Project, Chris Partington, 1999 & 2017
W:First Cu:hands 3 round with the 2nd Lady.| the same with the 2nd Gent:|
W:Lead down thw middle, up again & cast off:|. Allemande with your
W:partners:|
K:A
|:(EA)(Ac)|(BA)A2|(Ac)(ce)|(dc).c.e|fgaf|ecBA|GBdc|(c2B2):|
|:EGBc|dBBd|cAec|(c2Bc)|defg|aedc|~BABc|(A2A2):|

